public/images/art.svg

<svg height="222" viewBox="0 0 222 222" width="222" xmlns="http://www.w3.org/2000/svg"><g fill="none" fill-rule="evenodd"><path d="m0 0h222v222h-222z" fill="#f4f4f4" fill-rule="nonzero"/><g fill="#000" opacity=".1" transform="translate(-37 -37)"><path d="m127.2128 67.3126129-55.11 30.7682243-56.21-30.7682243c-2.09-1.2130841-4.84-.3308411-5.94 1.764486-1.21 2.0953271-.33 4.8523365 1.76 5.9551402l58.3 31.9813089c1.32.771962 2.97.771962 4.29 0l57.2-31.9813089c2.09-1.2130841 2.86-3.8598131 1.65-5.9551402-1.21-2.2056074-3.85-2.9775701-5.94-1.764486zm-104.5-20.4018691 49.39-28.011215 55 31.8710281c2.09 1.2130841 4.84.4411215 6.05-1.6542056s.44-4.8523365-1.65-6.0654206l-57.2-33.08411215c-1.32-.77196261-2.97-.77196261-4.4 0l-58.3 33.08411215c-2.97 1.6542056-2.97 5.9551402 0 7.7196262l58.3 33.0841121c2.09 1.2130841 4.84.4411215 6.05-1.6542056s.44-4.8523364-1.65-6.0654205zm-22.66 23.1588785v-22.0560748c-.44-5.0728972 1.87-10.2560747 6.93-13.1233645l58.3-33.08411211c4.29-2.42616822 9.46-2.42616822 13.64.11028038l57.2 33.08411213c4.73 2.7570094 7.26 7.9401869 6.82 13.0130841v22.0560748c.44 5.1831776-2.2 10.4766355-7.04 13.1233645l-57.2 31.9813082c-4.18 2.315888-9.13 2.315888-13.31 0l-58.3-31.9813082c-4.84-2.646729-7.37-7.8299066-7.04-13.1233645z"/><path d="m279.0128 67.3126129-55.11 30.7682243-56.21-30.7682243c-2.09-1.2130841-4.84-.3308411-5.94 1.764486-1.21 2.0953271-.33 4.8523365 1.76 5.9551402l58.3 31.9813089c1.32.771962 2.97.771962 4.29 0l57.2-31.9813089c2.09-1.2130841 2.86-3.8598131 1.65-5.9551402-1.21-2.2056074-3.85-2.9775701-5.94-1.764486zm-104.5-20.4018691 49.39-28.011215 55 31.8710281c2.09 1.2130841 4.84.4411215 6.05-1.6542056s.44-4.8523365-1.65-6.0654206l-57.2-33.08411215c-1.32-.77196261-2.97-.77196261-4.4 0l-58.3 33.08411215c-2.97 1.6542056-2.97 5.9551402 0 7.7196262l58.3 33.0841121c2.09 1.2130841 4.84.4411215 6.05-1.6542056s.44-4.8523364-1.65-6.0654205zm-22.66 23.1588785v-22.0560748c-.44-5.0728972 1.87-10.2560747 6.93-13.1233645l58.3-33.08411211c4.29-2.42616822 9.46-2.42616822 13.64.11028038l57.2 33.08411213c4.73 2.7570094 7.26 7.9401869 6.82 13.0130841v22.0560748c.44 5.1831776-2.2 10.4766355-7.04 13.1233645l-57.2 31.9813082c-4.18 2.315888-9.13 2.315888-13.31 0l-58.3-31.9813082c-4.84-2.646729-7.37-7.8299066-7.04-13.1233645z"/><path d="m127.2128 245.966819-55.11 30.768224-56.21-30.768224c-2.09-1.213085-4.84-.330842-5.94 1.764486-1.21 2.095327-.33 4.852336 1.76 5.95514l58.3 31.981308c1.32.771963 2.97.771963 4.29 0l57.2-31.981308c2.09-1.213084 2.86-3.859813 1.65-5.95514-1.21-2.205608-3.85-2.977571-5.94-1.764486zm-104.5-20.40187 49.39-28.011215 55 31.871028c2.09 1.213085 4.84.441122 6.05-1.654205s.44-4.852337-1.65-6.065421l-57.2-33.084112c-1.32-.771962-2.97-.771962-4.4 0l-58.3 33.084112c-2.97 1.654206-2.97 5.95514 0 7.719626l58.3 33.084113c2.09 1.213084 4.84.441121 6.05-1.654206s.44-4.852336-1.65-6.065421zm-22.66 23.158879v-22.056075c-.44-5.072897 1.87-10.256075 6.93-13.123364l58.3-33.084113c4.29-2.426168 9.46-2.426168 13.64.110281l57.2 33.084112c4.73 2.757009 7.26 7.940187 6.82 13.013084v22.056075c.44 5.183177-2.2 10.476635-7.04 13.123364l-57.2 31.981309c-4.18 2.315888-9.13 2.315888-13.31 0l-58.3-31.981309c-4.84-2.646729-7.37-7.829906-7.04-13.123364z"/><path d="m279.0128 245.966819-55.11 30.768224-56.21-30.768224c-2.09-1.213085-4.84-.330842-5.94 1.764486-1.21 2.095327-.33 4.852336 1.76 5.95514l58.3 31.981308c1.32.771963 2.97.771963 4.29 0l57.2-31.981308c2.09-1.213084 2.86-3.859813 1.65-5.95514-1.21-2.205608-3.85-2.977571-5.94-1.764486zm-104.5-20.40187 49.39-28.011215 55 31.871028c2.09 1.213085 4.84.441122 6.05-1.654205s.44-4.852337-1.65-6.065421l-57.2-33.084112c-1.32-.771962-2.97-.771962-4.4 0l-58.3 33.084112c-2.97 1.654206-2.97 5.95514 0 7.719626l58.3 33.084113c2.09 1.213084 4.84.441121 6.05-1.654206s.44-4.852336-1.65-6.065421zm-22.66 23.158879v-22.056075c-.44-5.072897 1.87-10.256075 6.93-13.123364l58.3-33.084113c4.29-2.426168 9.46-2.426168 13.64.110281l57.2 33.084112c4.73 2.757009 7.26 7.940187 6.82 13.013084v22.056075c.44 5.183177-2.2 10.476635-7.04 13.123364l-57.2 31.981309c-4.18 2.315888-9.13 2.315888-13.31 0l-58.3-31.981309c-4.84-2.646729-7.37-7.829906-7.04-13.123364z"/><path d="m203.1128 156.639716-55.11 30.768224-56.21-30.768224c-2.09-1.213084-4.84-.330841-5.94 1.764486-1.21 2.095327-.33 4.852336 1.76 5.95514l58.3 31.981308c1.32.771963 2.97.771963 4.29 0l57.2-31.981308c2.09-1.213084 2.86-3.859813 1.65-5.95514-1.21-2.205608-3.85-2.97757-5.94-1.764486zm-104.5-20.401869 49.39-28.011215 55 31.871028c2.09 1.213084 4.84.441121 6.05-1.654206s.44-4.852336-1.65-6.06542l-57.2-33.0841126c-1.32-.7719627-2.97-.7719627-4.4 0l-58.3 33.0841126c-2.97 1.654205-2.97 5.95514 0 7.719626l58.3 33.084112c2.09 1.213084 4.84.441121 6.05-1.654206s.44-4.852336-1.65-6.06542zm-22.66 23.158878v-22.056075c-.44-5.072897 1.87-10.256074 6.93-13.123364l58.3-33.0841123c4.29-2.4261682 9.46-2.4261682 13.64.1102804l57.2 33.0841119c4.73 2.75701 7.26 7.940187 6.82 13.013084v22.056075c.44 5.183178-2.2 10.476636-7.04 13.123365l-57.2 31.981308c-4.18 2.315888-9.13 2.315888-13.31 0l-58.3-31.981308c-4.84-2.646729-7.37-7.829907-7.04-13.123365z"/><path d="m51.3128 156.639716-55.11 30.768224-56.21-30.768224c-2.09-1.213084-4.84-.330841-5.94 1.764486-1.21 2.095327-.33 4.852336 1.76 5.95514l58.3 31.981308c1.32.771963 2.97.771963 4.29 0l57.2-31.981308c2.09-1.213084 2.86-3.859813 1.65-5.95514-1.21-2.205608-3.85-2.97757-5.94-1.764486zm-104.5-20.401869 49.39-28.011215 55 31.871028c2.09 1.213084 4.84.441121 6.05-1.654206s.44-4.852336-1.65-6.06542l-57.2-33.0841126c-1.32-.7719627-2.97-.7719627-4.4 0l-58.3 33.0841126c-2.97 1.654205-2.97 5.95514 0 7.719626l58.3 33.084112c2.09 1.213084 4.84.441121 6.05-1.654206s.44-4.852336-1.65-6.06542zm-22.66 23.158878v-22.056075c-.44-5.072897 1.87-10.256074 6.93-13.123364l58.3-33.0841123c4.29-2.4261682 9.46-2.4261682 13.64.1102804l57.2 33.0841119c4.73 2.75701 7.26 7.940187 6.82 13.013084v22.056075c.44 5.183178-2.2 10.476636-7.04 13.123365l-57.2 31.981308c-4.18 2.315888-9.13 2.315888-13.31 0l-58.3-31.981308c-4.84-2.646729-7.37-7.829907-7.04-13.123365z"/><path d="m354.9128 156.639716-55.11 30.768224-56.21-30.768224c-2.09-1.213084-4.84-.330841-5.94 1.764486-1.21 2.095327-.33 4.852336 1.76 5.95514l58.3 31.981308c1.32.771963 2.97.771963 4.29 0l57.2-31.981308c2.09-1.213084 2.86-3.859813 1.65-5.95514-1.21-2.205608-3.85-2.97757-5.94-1.764486zm-104.5-20.401869 49.39-28.011215 55 31.871028c2.09 1.213084 4.84.441121 6.05-1.654206s.44-4.852336-1.65-6.06542l-57.2-33.0841126c-1.32-.7719627-2.97-.7719627-4.4 0l-58.3 33.0841126c-2.97 1.654205-2.97 5.95514 0 7.719626l58.3 33.084112c2.09 1.213084 4.84.441121 6.05-1.654206s.44-4.852336-1.65-6.06542zm-22.66 23.158878v-22.056075c-.44-5.072897 1.87-10.256074 6.93-13.123364l58.3-33.0841123c4.29-2.4261682 9.46-2.4261682 13.64.1102804l57.2 33.0841119c4.73 2.75701 7.26 7.940187 6.82 13.013084v22.056075c.44 5.183178-2.2 10.476636-7.04 13.123365l-57.2 31.981308c-4.18 2.315888-9.13 2.315888-13.31 0l-58.3-31.981308c-4.84-2.646729-7.37-7.829907-7.04-13.123365z"/></g></g></svg>

<?xml version="1.0" encoding="UTF-8"?>
<svg width="222px" height="222px" viewBox="0 0 222 222" version="1.1" xmlns="http://www.w3.org/2000/svg" xmlns:xlink="http://www.w3.org/1999/xlink">
    <!-- Generator: Sketch 51.3 (57544) - http://www.bohemiancoding.com/sketch -->
    <title>art</title>
    <desc>Created with Sketch.</desc>
    <defs>
        <path d="M127.2128,67.3126129 L72.1028,98.0808372 L15.8928,67.3126129 C13.8028,66.0995288 11.0528,66.9817718 9.9528,69.0770989 C8.7428,71.172426 9.6228,73.9294354 11.7128,75.0322391 L70.0128,107.013548 C71.3328,107.78551 72.9828,107.78551 74.3028,107.013548 L131.5028,75.0322391 C133.5928,73.819155 134.3628,71.172426 133.1528,69.0770989 C131.9428,66.8714915 129.3028,66.0995288 127.2128,67.3126129 Z M22.7128,46.9107438 L72.1028,18.8995288 L127.1028,50.7705569 C129.1928,51.983641 131.9428,51.2116784 133.1528,49.1163513 C134.3628,47.0210242 133.5928,44.2640148 131.5028,43.0509307 L74.3028,9.96681855 C72.9828,9.19485594 71.3328,9.19485594 69.9028,9.96681855 L11.6028,43.0509307 C8.6328,44.7051363 8.6328,49.0060709 11.6028,50.7705569 L69.9028,83.854669 C71.9928,85.0677531 74.7428,84.2957905 75.9528,82.2004634 C77.1628,80.1051363 76.3928,77.348127 74.3028,76.1350429 L22.7128,46.9107438 Z M0.0528,70.0696223 L0.0528,48.0135475 C-0.3872,42.9406503 1.9228,37.7574728 6.9828,34.890183 L65.2828,1.80607089 C69.5728,-0.620097333 74.7428,-0.620097333 78.9228,1.91635127 L136.1228,35.0004634 C140.8528,37.7574728 143.3828,42.9406503 142.9428,48.0135475 L142.9428,70.0696223 C143.3828,75.2527999 140.7428,80.5462578 135.9028,83.1929868 L78.7028,115.174295 C74.5228,117.490183 69.5728,117.490183 65.3928,115.174295 L7.0928,83.1929868 C2.2528,80.5462578 -0.2772,75.3630802 0.0528,70.0696223 Z" id="path-1"></path>
        <path d="M279.0128,67.3126129 L223.9028,98.0808372 L167.6928,67.3126129 C165.6028,66.0995288 162.8528,66.9817718 161.7528,69.0770989 C160.5428,71.172426 161.4228,73.9294354 163.5128,75.0322391 L221.8128,107.013548 C223.1328,107.78551 224.7828,107.78551 226.1028,107.013548 L283.3028,75.0322391 C285.3928,73.819155 286.1628,71.172426 284.9528,69.0770989 C283.7428,66.8714915 281.1028,66.0995288 279.0128,67.3126129 Z M174.5128,46.9107438 L223.9028,18.8995288 L278.9028,50.7705569 C280.9928,51.983641 283.7428,51.2116784 284.9528,49.1163513 C286.1628,47.0210242 285.3928,44.2640148 283.3028,43.0509307 L226.1028,9.96681855 C224.7828,9.19485594 223.1328,9.19485594 221.7028,9.96681855 L163.4028,43.0509307 C160.4328,44.7051363 160.4328,49.0060709 163.4028,50.7705569 L221.7028,83.854669 C223.7928,85.0677531 226.5428,84.2957905 227.7528,82.2004634 C228.9628,80.1051363 228.1928,77.348127 226.1028,76.1350429 L174.5128,46.9107438 Z M151.8528,70.0696223 L151.8528,48.0135475 C151.4128,42.9406503 153.7228,37.7574728 158.7828,34.890183 L217.0828,1.80607089 C221.3728,-0.620097333 226.5428,-0.620097333 230.7228,1.91635127 L287.9228,35.0004634 C292.6528,37.7574728 295.1828,42.9406503 294.7428,48.0135475 L294.7428,70.0696223 C295.1828,75.2527999 292.5428,80.5462578 287.7028,83.1929868 L230.5028,115.174295 C226.3228,117.490183 221.3728,117.490183 217.1928,115.174295 L158.8928,83.1929868 C154.0528,80.5462578 151.5228,75.3630802 151.8528,70.0696223 Z" id="path-3"></path>
        <path d="M127.2128,245.966819 L72.1028,276.735043 L15.8928,245.966819 C13.8028,244.753734 11.0528,245.635977 9.9528,247.731305 C8.7428,249.826632 9.6228,252.583641 11.7128,253.686445 L70.0128,285.667753 C71.3328,286.439716 72.9828,286.439716 74.3028,285.667753 L131.5028,253.686445 C133.5928,252.473361 134.3628,249.826632 133.1528,247.731305 C131.9428,245.525697 129.3028,244.753734 127.2128,245.966819 Z M22.7128,225.564949 L72.1028,197.553734 L127.1028,229.424762 C129.1928,230.637847 131.9428,229.865884 133.1528,227.770557 C134.3628,225.67523 133.5928,222.91822 131.5028,221.705136 L74.3028,188.621024 C72.9828,187.849062 71.3328,187.849062 69.9028,188.621024 L11.6028,221.705136 C8.6328,223.359342 8.6328,227.660276 11.6028,229.424762 L69.9028,262.508875 C71.9928,263.721959 74.7428,262.949996 75.9528,260.854669 C77.1628,258.759342 76.3928,256.002333 74.3028,254.789248 L22.7128,225.564949 Z M0.0528,248.723828 L0.0528,226.667753 C-0.3872,221.594856 1.9228,216.411678 6.9828,213.544389 L65.2828,180.460276 C69.5728,178.034108 74.7428,178.034108 78.9228,180.570557 L136.1228,213.654669 C140.8528,216.411678 143.3828,221.594856 142.9428,226.667753 L142.9428,248.723828 C143.3828,253.907005 140.7428,259.200463 135.9028,261.847192 L78.7028,293.828501 C74.5228,296.144389 69.5728,296.144389 65.3928,293.828501 L7.0928,261.847192 C2.2528,259.200463 -0.2772,254.017286 0.0528,248.723828 Z" id="path-5"></path>
        <path d="M279.0128,245.966819 L223.9028,276.735043 L167.6928,245.966819 C165.6028,244.753734 162.8528,245.635977 161.7528,247.731305 C160.5428,249.826632 161.4228,252.583641 163.5128,253.686445 L221.8128,285.667753 C223.1328,286.439716 224.7828,286.439716 226.1028,285.667753 L283.3028,253.686445 C285.3928,252.473361 286.1628,249.826632 284.9528,247.731305 C283.7428,245.525697 281.1028,244.753734 279.0128,245.966819 Z M174.5128,225.564949 L223.9028,197.553734 L278.9028,229.424762 C280.9928,230.637847 283.7428,229.865884 284.9528,227.770557 C286.1628,225.67523 285.3928,222.91822 283.3028,221.705136 L226.1028,188.621024 C224.7828,187.849062 223.1328,187.849062 221.7028,188.621024 L163.4028,221.705136 C160.4328,223.359342 160.4328,227.660276 163.4028,229.424762 L221.7028,262.508875 C223.7928,263.721959 226.5428,262.949996 227.7528,260.854669 C228.9628,258.759342 228.1928,256.002333 226.1028,254.789248 L174.5128,225.564949 Z M151.8528,248.723828 L151.8528,226.667753 C151.4128,221.594856 153.7228,216.411678 158.7828,213.544389 L217.0828,180.460276 C221.3728,178.034108 226.5428,178.034108 230.7228,180.570557 L287.9228,213.654669 C292.6528,216.411678 295.1828,221.594856 294.7428,226.667753 L294.7428,248.723828 C295.1828,253.907005 292.5428,259.200463 287.7028,261.847192 L230.5028,293.828501 C226.3228,296.144389 221.3728,296.144389 217.1928,293.828501 L158.8928,261.847192 C154.0528,259.200463 151.5228,254.017286 151.8528,248.723828 Z" id="path-7"></path>
        <path d="M203.1128,156.639716 L148.0028,187.40794 L91.7928,156.639716 C89.7028,155.426632 86.9528,156.308875 85.8528,158.404202 C84.6428,160.499529 85.5228,163.256538 87.6128,164.359342 L145.9128,196.34065 C147.2328,197.112613 148.8828,197.112613 150.2028,196.34065 L207.4028,164.359342 C209.4928,163.146258 210.2628,160.499529 209.0528,158.404202 C207.8428,156.198594 205.2028,155.426632 203.1128,156.639716 Z M98.6128,136.237847 L148.0028,108.226632 L203.0028,140.09766 C205.0928,141.310744 207.8428,140.538781 209.0528,138.443454 C210.2628,136.348127 209.4928,133.591118 207.4028,132.378034 L150.2028,99.2939214 C148.8828,98.5219587 147.2328,98.5219587 145.8028,99.2939214 L87.5028,132.378034 C84.5328,134.032239 84.5328,138.333174 87.5028,140.09766 L145.8028,173.181772 C147.8928,174.394856 150.6428,173.622893 151.8528,171.527566 C153.0628,169.432239 152.2928,166.67523 150.2028,165.462146 L98.6128,136.237847 Z M75.9528,159.396725 L75.9528,137.34065 C75.5128,132.267753 77.8228,127.084576 82.8828,124.217286 L141.1828,91.1331737 C145.4728,88.7070055 150.6428,88.7070055 154.8228,91.2434541 L212.0228,124.327566 C216.7528,127.084576 219.2828,132.267753 218.8428,137.34065 L218.8428,159.396725 C219.2828,164.579903 216.6428,169.873361 211.8028,172.52009 L154.6028,204.501398 C150.4228,206.817286 145.4728,206.817286 141.2928,204.501398 L82.9928,172.52009 C78.1528,169.873361 75.6228,164.690183 75.9528,159.396725 Z" id="path-9"></path>
        <path d="M51.3128,156.639716 L-3.7972,187.40794 L-60.0072,156.639716 C-62.0972,155.426632 -64.8472,156.308875 -65.9472,158.404202 C-67.1572,160.499529 -66.2772,163.256538 -64.1872,164.359342 L-5.8872,196.34065 C-4.5672,197.112613 -2.9172,197.112613 -1.5972,196.34065 L55.6028,164.359342 C57.6928,163.146258 58.4628,160.499529 57.2528,158.404202 C56.0428,156.198594 53.4028,155.426632 51.3128,156.639716 Z M-53.1872,136.237847 L-3.7972,108.226632 L51.2028,140.09766 C53.2928,141.310744 56.0428,140.538781 57.2528,138.443454 C58.4628,136.348127 57.6928,133.591118 55.6028,132.378034 L-1.5972,99.2939214 C-2.9172,98.5219587 -4.5672,98.5219587 -5.9972,99.2939214 L-64.2972,132.378034 C-67.2672,134.032239 -67.2672,138.333174 -64.2972,140.09766 L-5.9972,173.181772 C-3.9072,174.394856 -1.1572,173.622893 0.0528,171.527566 C1.2628,169.432239 0.4928,166.67523 -1.5972,165.462146 L-53.1872,136.237847 Z M-75.8472,159.396725 L-75.8472,137.34065 C-76.2872,132.267753 -73.9772,127.084576 -68.9172,124.217286 L-10.6172,91.1331737 C-6.3272,88.7070055 -1.1572,88.7070055 3.0228,91.2434541 L60.2228,124.327566 C64.9528,127.084576 67.4828,132.267753 67.0428,137.34065 L67.0428,159.396725 C67.4828,164.579903 64.8428,169.873361 60.0028,172.52009 L2.8028,204.501398 C-1.3772,206.817286 -6.3272,206.817286 -10.5072,204.501398 L-68.8072,172.52009 C-73.6472,169.873361 -76.1772,164.690183 -75.8472,159.396725 Z" id="path-11"></path>
        <path d="M354.9128,156.639716 L299.8028,187.40794 L243.5928,156.639716 C241.5028,155.426632 238.7528,156.308875 237.6528,158.404202 C236.4428,160.499529 237.3228,163.256538 239.4128,164.359342 L297.7128,196.34065 C299.0328,197.112613 300.6828,197.112613 302.0028,196.34065 L359.2028,164.359342 C361.2928,163.146258 362.0628,160.499529 360.8528,158.404202 C359.6428,156.198594 357.0028,155.426632 354.9128,156.639716 Z M250.4128,136.237847 L299.8028,108.226632 L354.8028,140.09766 C356.8928,141.310744 359.6428,140.538781 360.8528,138.443454 C362.0628,136.348127 361.2928,133.591118 359.2028,132.378034 L302.0028,99.2939214 C300.6828,98.5219587 299.0328,98.5219587 297.6028,99.2939214 L239.3028,132.378034 C236.3328,134.032239 236.3328,138.333174 239.3028,140.09766 L297.6028,173.181772 C299.6928,174.394856 302.4428,173.622893 303.6528,171.527566 C304.8628,169.432239 304.0928,166.67523 302.0028,165.462146 L250.4128,136.237847 Z M227.7528,159.396725 L227.7528,137.34065 C227.3128,132.267753 229.6228,127.084576 234.6828,124.217286 L292.9828,91.1331737 C297.2728,88.7070055 302.4428,88.7070055 306.6228,91.2434541 L363.8228,124.327566 C368.5528,127.084576 371.0828,132.267753 370.6428,137.34065 L370.6428,159.396725 C371.0828,164.579903 368.4428,169.873361 363.6028,172.52009 L306.4028,204.501398 C302.2228,206.817286 297.2728,206.817286 293.0928,204.501398 L234.7928,172.52009 C229.9528,169.873361 227.4228,164.690183 227.7528,159.396725 Z" id="path-13"></path>
    </defs>
    <g id="Page-1" stroke="none" stroke-width="1" fill="none" fill-rule="evenodd">
        <g id="Artboard-Copy">
            <g id="art" transform="translate(-37.000000, -37.000000)">
                <rect id="Rectangle" fill="#F4F4F4" fill-rule="nonzero" x="37" y="37" width="222" height="222"></rect>
                <g id="Group" opacity="0.100000001">
                    <mask id="mask-2" fill="white">
                        <use xlink:href="#path-1"></use>
                    </mask>
                    <use id="a" fill="#000000" xlink:href="#path-1"></use>
                    <mask id="mask-4" fill="white">
                        <use xlink:href="#path-3"></use>
                    </mask>
                    <use id="a-copy" fill="#000000" xlink:href="#path-3"></use>
                    <mask id="mask-6" fill="white">
                        <use xlink:href="#path-5"></use>
                    </mask>
                    <use id="a-copy-8" fill="#000000" xlink:href="#path-5"></use>
                    <mask id="mask-8" fill="white">
                        <use xlink:href="#path-7"></use>
                    </mask>
                    <use id="a-copy-6" fill="#000000" xlink:href="#path-7"></use>
                    <mask id="mask-10" fill="white">
                        <use xlink:href="#path-9"></use>
                    </mask>
                    <use id="a-copy-5" fill="#000000" xlink:href="#path-9"></use>
                    <mask id="mask-12" fill="white">
                        <use xlink:href="#path-11"></use>
                    </mask>
                    <use id="a-copy-4" fill="#000000" xlink:href="#path-11"></use>
                    <mask id="mask-14" fill="white">
                        <use xlink:href="#path-13"></use>
                    </mask>
                    <use id="a-copy-3" fill="#000000" xlink:href="#path-13"></use>
                </g>
            </g>
        </g>
    </g>
</svg>
